ion/easel.svg

<svg viewBox="0 0 512 512" xmlns="http://www.w3.org/2000/svg"><g><rect width="352" height="208" x="80" rx="12" y="112"/><path d="M432 64H272V48v0c0-8.84-7.17-16-16-16 -8.84 0-16 7.16-16 16v16H80h-.001c-26.5.02-47.98 21.5-48 48v208 0c.02 26.49 21.5 47.97 48 48h42.79l-26.17 91.6h-.001c-2.6 8.44 2.15 17.39 10.59 19.99 8.44 2.59 17.39-2.16 19.99-10.6 .06-.2.11-.4.17-.6l28.69-100.4h83.93v48 0c0 8.83 7.16 16 16 16 8.83 0 16-7.17 16-16v-48h83.93l28.69 100.4v0c2.26 8.54 11.02 13.62 19.56 11.36 8.54-2.27 13.62-11.03 11.36-19.57 -.06-.2-.11-.4-.18-.6l-26.17-91.6h42.79v0c26.49-.03 47.97-21.51 48-48v-208 0c-.03-26.5-21.51-47.98-48-48Zm16 256v0c0 8.83-7.17 16-16 16H80v0c-8.84 0-16-7.17-16-16V112v0c0-8.84 7.16-16 16-16h352v0c8.83 0 16 7.16 16 16Z"/></g></svg>

<svg xmlns="http://www.w3.org/2000/svg" width="512" height="512" viewBox="0 0 512 512"><rect x="80" y="112" width="352" height="208" rx="12" ry="12"/><path d="M432,64H272V48a16,16,0,0,0-32,0V64H80a48.05,48.05,0,0,0-48,48V320a48.05,48.05,0,0,0,48,48h42.79L96.62,459.6a16,16,0,1,0,30.76,8.8L156.07,368H240v48a16,16,0,0,0,32,0V368h83.93l28.69,100.4a16,16,0,1,0,30.76-8.8L389.21,368H432a48.05,48.05,0,0,0,48-48V112A48.05,48.05,0,0,0,432,64Zm16,256a16,16,0,0,1-16,16H80a16,16,0,0,1-16-16V112A16,16,0,0,1,80,96H432a16,16,0,0,1,16,16Z"/></svg>
